X:2
T:Cats Are Bad
N:For Baby Kitty
C:copyright 1997 Kaubells
R:Jig
E:16
M:6/8
K:D
"D"d2A F2E|D6|"Bb7-5"_B,DE A3|"A7"F2E C2A,|*
"D"d2A F2E|D6|"Bb7-5"_B,D [.E.A] "A7"C2A,|1"...D"D6:|2"...D"D3 zEF:|*
"Em"G2E B2E|GFE B2E|"D"A2F E2F|"Bm"D3 B,EF|*
"Em"G2E B2E|GFE B2E|"D"A2F B,2D|1"...Em"E3 zEF:|2"...Em"E6|]*
